X: 10732
Q: "Slow."
M: 3/4
L: 1/8
K: F
|:\
c>d |\
_e3 gfe | d2 _e2 f2 | c3 dfg | f2 d2 c2 |
_edegfe | d3 =e Hf2 | {d}c2 (BA)(GF) | {E}F2 D2 C2 |\
f2 e2 d2 | c2 B2 A2 | G3 FAG | F3 G/A/ C2 |\


